X:1
T:[ID 3-7a]
T:[ID 3-7a]
T:Bezeichnung standardisiert: Allegro Allegro 3. In dieser Quelle auch als: Tantz
T:Urheber unbekannt Datum in der hier transkribierten schriftlichen Quelle: 1767
C:Urheber unbekannt
C:Datum in der hier transkribierten schriftlichen Quelle: 1767
%%score 1 2
L:1/8
M:2/4
K:D
V:1 treble nm="Primo"
V:2 treble nm="Secondo"
V:1
 dddd | df/e/ d2 | ffff | fa/g/ f2 | a2 f2 | g2 e2 | fa ag/f/ | e4 :: e2 f2 | eagf | eagf | e2 z2 | %12
 dddd | df/e/ d2 | ffff | fa/g/ f2 | f/e/d Te2 | d4 :| %18
V:2
 FFFF | FA/G/ F2 | dddd | df/e/ d2 | f2 d2 | e2 A2 | df fe/d/ | A4 :: c2 d2 | Afed | Afed | c2 z2 | %12
 FFFF | FA/G/ F2 | dddd | df/e/ d2 | dF TG2 | F4 :| %18

